svg/myspeed.svg

<?xml version="1.0" encoding="UTF-8"?>
<svg xmlns="http://www.w3.org/2000/svg" xmlns:xlink="http://www.w3.org/1999/xlink" width="512px" height="512px" viewBox="0 0 512 512" version="1.1">
<g id="surface1">
<path style=" stroke:none;fill-rule:nonzero;fill:rgb(10.980392%,12.941176%,18.823529%);fill-opacity:1;" d="M 256 0 C 114.613281 0 0 114.613281 0 256 C 0 397.386719 114.613281 512 256 512 C 397.386719 512 512 397.386719 512 256 C 512 114.613281 397.386719 0 256 0 Z M 256 0 "/>
<path style=" stroke:none;fill-rule:nonzero;fill:rgb(90.196078%,90.980392%,99.215686%);fill-opacity:1;" d="M 375.246094 102.089844 C 380.492188 104.679688 383.496094 108.347656 385.859375 113.652344 C 387.726562 119.257812 387.023438 124.015625 384.472656 129.261719 C 381.902344 133.566406 378.484375 137.042969 375.011719 140.628906 C 374.335938 141.335938 373.660156 142.046875 372.972656 142.773438 C 368.300781 147.640625 363.550781 152.414062 358.746094 157.15625 C 356.875 159.0625 355.101562 161.003906 353.367188 163.042969 C 350.34375 166.59375 347.074219 169.847656 343.765625 173.121094 C 340.488281 176.359375 337.257812 179.570312 334.277344 183.082031 C 331.296875 186.597656 328.066406 189.804688 324.789062 193.042969 C 321.535156 196.261719 318.320312 199.449219 315.363281 202.945312 C 311.6875 207.289062 307.597656 211.210938 303.554688 215.210938 C 300.171875 218.574219 296.953125 222.007812 293.871094 225.652344 C 290.808594 229.070312 287.511719 232.242188 284.25 235.460938 C 281.441406 238.253906 278.726562 241.0625 276.171875 244.09375 C 265.871094 256.101562 265.871094 256.101562 257.910156 257.078125 C 251.839844 257.128906 247.460938 256.402344 242.730469 252.335938 C 238.210938 247.746094 236.039062 243.761719 235.734375 237.335938 C 236.046875 227.617188 241.804688 222.585938 248.46875 216.167969 C 250.632812 214.085938 252.648438 211.945312 254.589844 209.644531 C 257.429688 206.300781 260.488281 203.234375 263.601562 200.15625 C 266.652344 197.140625 269.664062 194.140625 272.4375 190.851562 C 275.757812 186.9375 279.402344 183.371094 283.046875 179.761719 C 287.214844 175.640625 291.253906 171.519531 295.035156 167.039062 C 298.078125 163.636719 301.378906 160.472656 304.625 157.253906 C 307.34375 154.554688 309.980469 151.851562 312.457031 148.929688 C 315.933594 144.832031 319.78125 141.113281 323.597656 137.339844 C 326.316406 134.632812 328.957031 131.929688 331.429688 129.007812 C 334.90625 124.910156 338.738281 121.191406 342.5625 117.433594 C 345.425781 114.609375 348.074219 111.753906 350.582031 108.613281 C 357.132812 100.957031 365.898438 98.4375 375.246094 102.089844 Z M 375.246094 102.089844 "/>
<path style=" stroke:none;fill-rule:nonzero;fill:rgb(90.196078%,54.117647%,0%);fill-opacity:1;" d="M 92.050781 249.523438 C 92.050781 249.523438 92.511719 249.386719 98.601562 249.445312 C 99.351562 249.4375 100.101562 249.433594 100.855469 249.429688 C 102.121094 249.417969 102.121094 249.417969 103.410156 249.40625 C 104.621094 249.402344 104.621094 249.402344 105.859375 249.402344 C 106.605469 249.394531 107.347656 249.386719 108.117188 249.378906 C 110.542969 249.523438 111.894531 251.972656 111.882812 254.402344 L 111.867188 257.84375 C 111.851562 261.332031 109.84375 262.894531 106.355469 262.863281 C 104.488281 262.859375 102.570312 262.847656 100.855469 262.828125 C 92.234375 262.808594 91.847656 262.816406 91.847656 262.816406 L 91.984375 256.75 Z M 92.050781 249.523438 "/>
<path style=" stroke:none;fill-rule:nonzero;fill:rgb(25.882353%,77.254902%,34.117647%);fill-opacity:1;" d="M 250.15625 98.972656 C 250.191406 95.464844 250.136719 92.695312 250.136719 92.695312 L 256.589844 92.597656 L 263.941406 92.792969 C 263.941406 92.792969 263.867188 95.550781 263.9375 99.230469 C 263.914062 100.617188 263.894531 102.167969 263.859375 103.398438 C 263.875 104.539062 263.875 104.539062 263.886719 105.703125 C 263.894531 105.910156 263.894531 106.078125 263.898438 106.222656 C 263.921875 107.289062 263.886719 108.511719 263.484375 109.503906 C 262.429688 112.105469 259.3125 112.917969 256.503906 112.863281 C 256.480469 112.863281 256.457031 112.863281 256.433594 112.859375 C 255.691406 112.859375 254.945312 112.855469 254.179688 112.847656 C 254.023438 112.824219 253.878906 112.800781 253.742188 112.78125 C 251.09375 112.382812 250.105469 109.21875 250.140625 106.539062 C 250.148438 105.730469 250.15625 104.921875 250.164062 104.09375 C 250.21875 102.332031 250.199219 100.597656 250.15625 98.972656 Z M 250.15625 98.972656 "/>
<path style=" stroke:none;fill-rule:nonzero;fill:rgb(77.254902%,25.882353%,25.882353%);fill-opacity:1;" d="M 407.152344 249.402344 C 407.917969 249.402344 408.679688 249.402344 409.472656 249.40625 C 410.664062 249.414062 410.664062 249.414062 411.890625 249.433594 C 412.699219 249.4375 413.496094 249.4375 414.335938 249.445312 C 417.640625 249.457031 420.277344 249.445312 420.277344 249.445312 L 420.386719 256.25 L 420.289062 262.773438 C 420.289062 262.773438 420.835938 262.800781 417.445312 262.820312 C 416.851562 262.824219 412.484375 262.828125 411.890625 262.832031 C 410.691406 262.847656 410.691406 262.847656 409.472656 262.855469 C 408.703125 262.859375 407.941406 262.859375 407.15625 262.859375 C 406.449219 262.867188 405.746094 262.878906 405.019531 262.886719 C 402.644531 262.734375 401.324219 260.167969 401.339844 257.785156 L 401.359375 254.996094 C 401.378906 251.847656 403.371094 249.367188 406.859375 249.398438 C 406.953125 249.402344 407.054688 249.402344 407.15625 249.402344 Z M 407.152344 249.402344 "/>
<path style=" stroke:none;fill-rule:nonzero;fill:rgb(90.196078%,90.980392%,99.215686%);fill-opacity:1;" d="M 338.3125 80.410156 C 342.789062 82.566406 344.632812 88.070312 341.070312 91.539062 C 340.457031 92.144531 339.835938 92.753906 339.199219 93.375 C 338.550781 94.007812 337.90625 94.628906 337.242188 95.273438 C 335.289062 97.175781 333.988281 98.441406 332.933594 99.515625 C 328.605469 103.914062 322.34375 106.019531 316.59375 103.789062 C 296.855469 96.183594 277.46875 92.5625 256.308594 92.664062 C 255.183594 92.664062 255.183594 92.664062 254.027344 92.671875 C 242.769531 92.71875 231.886719 93.101562 220.910156 95.808594 C 219.757812 96.082031 219.757812 96.082031 218.578125 96.363281 C 192.109375 102.820312 163.105469 115.011719 143.125 133.695312 C 131.429688 146.667969 116.957031 161.242188 109.546875 177.984375 C 86.816406 229.347656 85.277344 295.738281 109.082031 329.140625 C 109.480469 330.058594 109.6875 330.542969 109.796875 330.996094 C 110.023438 331.9375 110.878906 332.632812 111.785156 332.304688 C 183.636719 307.046875 260.570312 301.632812 399.417969 332.375 C 400.925781 332.707031 402.46875 331.851562 402.949219 330.386719 C 403.78125 327.925781 404.671875 325.5625 405.679688 323.175781 C 410.050781 312.6875 413.785156 302.304688 416.335938 291.230469 C 416.566406 290.269531 416.566406 290.269531 416.808594 289.289062 C 421.714844 268.175781 421.515625 242.054688 416.335938 221.03125 C 416.0625 219.875 416.0625 219.875 415.78125 218.695312 C 410.761719 198.128906 402.570312 177.738281 389.257812 161.125 C 388.519531 160.207031 387.648438 159.058594 387.261719 157.945312 C 386.585938 156.007812 387.871094 154.1875 389.136719 152.570312 C 390.503906 150.832031 392.027344 149.324219 393.746094 147.6875 C 394.277344 147.171875 394.808594 146.65625 395.335938 146.132812 C 401.605469 139.929688 411.296875 138.921875 416.097656 146.324219 C 416.847656 147.464844 416.847656 147.464844 417.609375 148.636719 C 419.101562 150.941406 420.566406 153.253906 422.027344 155.574219 C 422.429688 156.203125 422.820312 156.824219 423.226562 157.46875 C 449.777344 200.019531 455.609375 253.929688 444.617188 302.199219 C 440.691406 318.289062 434.695312 333.625 426.769531 348.152344 C 426.46875 348.714844 426.164062 349.285156 425.851562 349.871094 C 409.738281 379.886719 385.304688 404.152344 356.570312 422.144531 C 356 422.503906 355.4375 422.867188 354.851562 423.234375 C 312.597656 449.539062 259.109375 455.707031 211.070312 445.070312 C 160.277344 433.117188 117.515625 400.625 89.996094 356.6875 C 89.640625 356.117188 89.277344 355.554688 88.90625 354.960938 C 62.605469 312.71875 56.4375 259.226562 67.074219 211.1875 C 79.027344 160.398438 111.519531 117.632812 155.453125 90.117188 C 156.304688 89.574219 156.304688 89.574219 157.179688 89.027344 C 210.285156 55.96875 282.125 53.363281 338.3125 80.410156 Z M 338.3125 80.410156 "/>
</g>
</svg>

<svg xmlns="http://www.w3.org/2000/svg" width="512" height="512"><path d="M256 0C114.613 0 0 114.613 0 256s114.613 256 256 256 256-114.613 256-256S397.387 0 256 0m0 0" style="stroke:none;fill-rule:nonzero;fill:#1c2130;fill-opacity:1"/><path d="M375.246 102.09c5.246 2.59 8.25 6.258 10.613 11.562 1.868 5.606 1.164 10.364-1.386 15.61-2.57 4.304-5.989 7.781-9.461 11.367-.676.707-1.352 1.418-2.04 2.144-4.671 4.868-9.421 9.641-14.226 14.383a111 111 0 0 0-5.379 5.887c-3.023 3.55-6.293 6.805-9.601 10.078-3.278 3.238-6.508 6.45-9.489 9.961-2.98 3.516-6.21 6.723-9.488 9.961-3.254 3.219-6.469 6.406-9.426 9.902-3.675 4.344-7.765 8.266-11.808 12.266-3.383 3.363-6.602 6.797-9.684 10.441-3.062 3.418-6.36 6.59-9.621 9.809-2.809 2.793-5.523 5.601-8.078 8.633-10.3 12.008-10.3 12.008-18.262 12.984-6.07.05-10.45-.676-15.18-4.742-4.52-4.59-6.69-8.574-6.996-15 .313-9.719 6.07-14.75 12.735-21.168a86 86 0 0 0 6.12-6.523c2.84-3.344 5.9-6.41 9.013-9.489 3.05-3.015 6.062-6.015 8.836-9.304 3.32-3.915 6.964-7.48 10.609-11.09 4.168-4.121 8.207-8.242 11.988-12.723 3.043-3.402 6.344-6.566 9.59-9.785 2.719-2.7 5.355-5.402 7.832-8.324 3.477-4.098 7.324-7.817 11.14-11.59 2.72-2.707 5.36-5.41 7.833-8.332 3.476-4.098 7.308-7.817 11.132-11.574 2.864-2.825 5.512-5.68 8.02-8.82 6.55-7.657 15.316-10.177 24.664-6.524m0 0" style="stroke:none;fill-rule:nonzero;fill:#e6e8fd;fill-opacity:1"/><path d="M92.05 249.523s.462-.136 6.552-.078q1.124-.01 2.253-.015l2.555-.024c1.211-.004 1.211-.004 2.45-.004l2.257-.023c2.426.144 3.778 2.594 3.766 5.023l-.016 3.442c-.015 3.488-2.023 5.05-5.512 5.02a607 607 0 0 1-5.5-.036c-8.62-.02-9.007-.012-9.007-.012l.136-6.066Zm0 0" style="stroke:none;fill-rule:nonzero;fill:#e68a00;fill-opacity:1"/><path d="M250.156 98.973c.035-3.508-.02-6.278-.02-6.278l6.454-.097 7.351.195s-.074 2.758-.003 6.437c-.024 1.387-.043 2.938-.079 4.168.016 1.141.016 1.141.028 2.305.008.207.008.375.011.52.024 1.066-.011 2.289-.414 3.28-1.054 2.602-4.171 3.415-6.98 3.36q-.036.001-.07-.004c-.743 0-1.489-.004-2.254-.011l-.438-.067c-2.648-.398-3.637-3.562-3.601-6.242l.023-2.445a89 89 0 0 0-.008-5.121m0 0" style="stroke:none;fill-rule:nonzero;fill:#42c557;fill-opacity:1"/><path d="M407.152 249.402c.766 0 1.528 0 2.32.004 1.192.008 1.192.008 2.419.028.808.004 1.605.004 2.445.011 3.305.012 5.941 0 5.941 0l.11 6.805-.098 6.523s.547.028-2.844.047c-.593.004-4.96.008-5.554.012-1.2.016-1.2.016-2.418.023-.77.004-1.532.004-2.317.004-.707.008-1.41.02-2.136.028-2.375-.153-3.696-2.719-3.68-5.102l.02-2.789c.019-3.148 2.011-5.629 5.5-5.598.093.004.195.004.296.004Zm0 0" style="stroke:none;fill-rule:nonzero;fill:#c54242;fill-opacity:1"/><path d="M338.313 80.41c4.476 2.156 6.32 7.66 2.757 11.13q-.918.906-1.87 1.835c-.65.633-1.294 1.254-1.958 1.898-1.953 1.903-3.254 3.168-4.308 4.243-4.329 4.398-10.59 6.504-16.34 4.273-19.739-7.605-39.125-11.227-60.285-11.125-1.125 0-1.125 0-2.282.008-11.257.047-22.14.43-33.117 3.137l-2.332.554c-26.469 6.457-55.473 18.649-75.453 37.332-11.695 12.973-26.168 27.547-33.578 44.29-22.73 51.363-24.27 117.753-.465 151.156.398.918.606 1.402.715 1.855.226.942 1.082 1.637 1.988 1.309 71.852-25.258 148.785-30.672 287.633.07 1.508.332 3.05-.523 3.531-1.988a104 104 0 0 1 2.73-7.211c4.372-10.488 8.106-20.871 10.657-31.946.23-.96.23-.96.473-1.94 4.906-21.114 4.707-47.235-.473-68.259l-.555-2.336c-5.02-20.566-13.21-40.957-26.523-57.57-.738-.918-1.61-2.066-1.996-3.18-.676-1.937.61-3.757 1.875-5.375 1.367-1.738 2.89-3.246 4.61-4.882q.797-.772 1.589-1.555c6.27-6.203 15.96-7.211 20.762.191.75 1.14.75 1.14 1.511 2.313a649 649 0 0 1 4.418 6.937c.403.63.793 1.25 1.2 1.895 26.55 42.55 32.382 96.46 21.39 144.73-3.926 16.09-9.922 31.426-17.847 45.953-.301.563-.606 1.133-.918 1.72-16.114 30.015-40.547 54.28-69.282 72.273-.57.359-1.132.722-1.718 1.09-42.254 26.304-95.743 32.472-143.782 21.835-50.793-11.953-93.554-44.445-121.074-88.382-.355-.57-.719-1.133-1.09-1.727-26.3-42.242-32.469-95.734-21.832-143.773 11.953-50.79 44.446-93.555 88.38-121.07.85-.544.85-.544 1.726-1.09 53.105-33.06 124.945-35.665 181.133-8.618m0 0" style="stroke:none;fill-rule:nonzero;fill:#e6e8fd;fill-opacity:1"/></svg>
